!!!!SEGMENT: pl-wn--mus-iii-153-395_zelenski-wladyslaw--chant-elegique-op-16-no-2.krn
!!!cenid: 18xx:3679
!!!COM: Żeleński, Władysław
!!!COM-rismID: pe41024455
!!!CDT: 1837/07/06-1921/01/23
!!!CNT: Polish
!!!OTL: Chant élégique op. 16 No. 2
!!!PDT:
!!!AGN:
!!!SMS-siglum: PL-Wn
!!!SMS-shelfmark: Mus.III.153.395
!!!SMS-shelfwork: W
!!!SMS-variant: Violon: PL-Wn Mus.III.153.395: Karta 3-Karta 10
!!!SMS-altvar: Violon: PL-Wn Mus.III.153.395: Karta 2, Karta 11
!!!NIFC-rismSourceID:
!!!NIFC-islandoraID:
!!!URL-pdf-islandora:
!!!URL-scan: https://polona.pl/item/deux-morceaux-de-salon-piano-et-violon-op-16-no-2-chant-elegique,MjExNDc2OA/0 @EN{Scan on Polona} @PL{Skany w portalu Polona}
!!!ONB-nifc: UWAGA: na podstawie partytury
!!!AIN: 1 cello 1 empty
!!!key: E-
**kern	**kern	**dynam	**kern	**dynam
*part2	*part2	*part2	*part1	*part1
*staff3	*staff2	*	*staff1	*
*Iempty	*Ipiano	*	*Icello	*
*	*I"Piano.	*	*I"Violon	*
*	*I'pf	*	*I'vl	*
*	*ICklav	*	*ICstr	*
*clefF4	*clefG2	*	*clefG2	*
*k[b-e-a-]	*k[b-e-a-]	*	*k[b-e-a-]	*
*E-:	*E-:	*	*E-:	*
*M12/8	*M12/8	*	*M12/8	*
=1	=1	=1	=1	=1
*xywh-3:360,837,2453,513	*xywh-3:360,837,2453,513	*	*xywh-3:408,533,2398,347	*
!	!	!	!LO:TX:a:B:t=Andante non troppo lento.	!
8EE-/	(4.gg\	p <	1.r	.
*clefG2	*	*	*	*
8B-/L 8e-/ 8b-/	.	.	.	.
8B-/J 8e-/ 8b-/	.	.	.	.
8B-/L 8e-/ 8b-/	4.gg^\	.	.	.
8B-/ 8e-/ 8b-/	.	.	.	.
8B-/J 8e-/ 8b-/	.	.	.	.
8c-X/L 8e-/ 8b-/	[4.gg^\	[	.	.
8c-/ 8e-/ 8b-/	.	.	.	.
8c-/J 8e-/ 8b-/	.	.	.	.
8c-/L 8e-/ 8an/	8gg\L]	.	.	.
8c-/ 8e-/ 8a/	8ff\	>	.	.
8c-/J 8e-/ 8a/	8f\J)	]]	.	.
=2	=2	=2	=2	=2
8cn/L 8e-/ 8a-X/	[4.ee-\	.	1.r	.
8c/ 8e-/ 8a-/	.	.	.	.
8c/J 8e-/ 8a-/	.	.	.	.
8c/L 8e-/ 8a-/	8ee-\L]	.	.	.
8c/ 8e-/ 8a-/	8dd\	.	.	.
8c/J 8e-/ 8a-/	8cc\J	.	.	.
8d/L 8f/ 8a-/	[4.b-\	.	.	.
8d/ 8f/ 8a-/	.	.	.	.
8d/J 8f/ 8a-/	.	.	.	.
8e-/L 8g/	4b-\]	<	.	.
8e-/ 8g/	.	.	.	.
8e-/J 8g/	8bn\	[[	.	.
=3	=3	=3	=3	=3
!	!LO:TX:b:t=espress.	!	!	!
8A-/L 8e-/ 8f/	4.cc\	.	1.r	.
8A-/ 8e-/ 8f/	.	.	.	.
8A-/J 8e-/ 8f/	.	.	.	.
8A-/L 8d/	4.f/	.	.	.
8A-/ 8d/	.	.	.	.
8A-/J 8d/	.	.	.	.
8G/L 8d-X/	[4.b-\	.	.	.
8G/ 8d-/	.	.	.	.
8G/J 8d-/	.	.	.	.
8A-/L 8d-/	8b-/L]	.	.	.
8A-/ 8c/	8e-/	.	.	.
8A-/J 8c-X/	8f/J	.	.	.
!!LO:LB:g=original
=4	=4	=4	=4	=4
*	*^	*	*	*
*xywh-3:317,1529,2536,529	*xywh-3:317,1529,2536,529	*xywh-3:317,1529,2536,529	*xywh-3:336,1300,2501,276	*xywh-3:336,1300,2501,276	*
8B-/L	2.g/	8r	.	1.r	.
8B-/	.	8e-\L	.	.	.
8B-/J	.	8e-\J	.	.	.
8B-/L	.	8e-\L	.	.	.
8B-/	.	8e-\	.	.	.
8B-/J	.	8e-\J	.	.	.
8B-\L	4.g/	8r	>	.	.
*clefF4	*	*	*	*	*
8BB-\ 8A-\	.	8c\L	.	.	.
8BB-\J 8A-\	.	8c\J	.	.	.
8BB-\L 8A-\	4g/	8d\L	.	.	.
8BB-\ 8A-\	.	8d\	.	.	.
8BB-\J 8A-\	8f/	8d\J	.	.	.
*	*v	*v	*	*	*
=5	=5	=5	=5	=5
8E-/L 8G/	8e-/L	] pp <	(4.gg\	p <
8EE-/ 8E-/	8B-/ 8e-/ 8b-/	.	.	.
8EE-/J 8E-/	8B-/J 8e-/ 8b-/	.	.	.
8EE-/L 8E-/	8B-/L 8e-/ 8b-/	.	4.gg^\	.
8EE-/ 8E-/	8B-/ 8e-/ 8b-/	.	.	.
8EE-/J 8E-/	8B-/J 8e-/ 8b-/	[	.	.
8EE-/L 8E-/	8c-X/L 8e-/ 8b-/	.	[4.gg^\)	[
8EE-/ 8E-/	8c-/ 8e-/ 8b-/	.	.	.
8EE-/J 8E-/	8c-/J 8e-/ 8b-/	.	.	.
8EE-/L 8E-/	8c-/L 8e-/ 8an/	.	(8gg\L]	>
8EE-/ 8E-/	8c-/ 8e-/ 8a/	.	8ff\	.
8EE-/J 8E-/	8c-/J 8e-/ 8a/	.	8f\J)	]]
=6	=6	=6	=6	=6
8EE-/L 8E-/	8cn/L 8e-/ 8a-X/	.	([4.ee-\	.
8EE-/ 8E-/	8c/ 8e-/ 8a-/	.	.	.
8EE-/J 8E-/	8c/J 8e-/ 8a-/	.	.	.
8EE-/L 8E-/	8c/L 8e-/ 8a-/	.	8ee-\L]	.
8EE-/ 8E-/	8c/ 8e-/ 8a-/	.	8dd^\	.
8EE-/J 8E-/	8c/J 8e-/ 8a-/	.	8cc^\J)	.
8FF/L	8B-/L 8d/ 8a-/	.	([4.b-\	.
8FF/	8B-/ 8d/ 8a-/	.	.	.
8FF/J	8B-/J 8d/ 8a-/	.	.	.
8GG/L	8B-/L 8e-/ 8g/	.	4b-\]	.
8GG/	8B-/ 8e-/ 8g/	.	.	.
8GG/J	8Bn/J 8e-/ 8g/	.	8bn\	.
!!LO:LB:g=original
=7	=7	=7	=7	=7
8AA-/L	8c/L 8e-/ 8f/	.	4.cc\)	<
8AA-/	8c/ 8e-/ 8f/	.	.	.
8AA-/J	8c/J 8e-/ 8f/	<	.	.
8AA-/L	8B-X/L 8d/ 8f/	.	4.dd\	.
8AA-/	8B-/ 8d/ 8f/	.	.	.
8AA-/J	8B-/J 8d/ 8f/	.	.	.
8GG/L	8B-/L 8e-/	.	([4.ee-\	.
8GG/	8B-/ 8e-/	.	.	.
8GG/J	8B-/J 8e-/	.	.	.
8GG/L	8B-/L 8e-/ 8b-/	.	4ee-\]	.
8GG/	8B-/ 8e-/ 8b-/	.	.	.
8GG/J	8B-/J 8en/ 8b-/	.	8een\)	.
!!LO:LB:g=original
=8	=8	=8	=8	=8
*xywh-3:352,2236,2481,505	*xywh-3:352,2236,2481,505	*	*xywh-3:356,2027,2469,244	*
8FF/L	8c/L 8f/ 8a-/	.	4.ff\	.
8FF/	8c/ 8f/ 8a-/	.	.	.
8FF/J	8c/J 8f/ 8a-/	.	.	.
8EEn/L	8c/L 8g/ 8cc/	.	4.gg\	.
8EE/	8c/ 8g/ 8cc/	.	.	.
8EE/J	8c/J 8g/ 8cc/	.	.	.
8FF/L	8c/L 8f/ 8a-/	.	[2.aa-\	[[
8FF/	8c/ 8f/ 8a-/	.	.	.
8FF/J	8c/J 8f/ 8a-/	.	.	.
8EE-X/L	8c-X/L 8f/ 8a-/	.	.	.
8EE-/	8c-/ 8f/ 8a-/	.	.	.
8EE-/J	8c-/J 8f/ 8a-/	[[	.	.
=9	=9	=9	=9	=9
8DD/	8B-/ 8f/ 8a-/	>	8aa-\]	.
*clefG2	*	*	*	*
8B-/L 8f/ 8a-/	8r	.	8r	.
8B-/J 8f/ 8a-/	8r	.	8r	.
8B-/L 8e-/ 8a-/	4r	.	4r	.
8B-/ 8e-/ 8a-/	.	.	.	.
8B-/J 8e-/ 8a-/	8r	.	8r	.
8B-/L 8d/ 8a-/	8r	.	(2.ff\	pp
8B-/ 8d/ 8a-/	(8b-\L	] pp	.	.
8B-/J 8d/ 8a-/	8cc\J	.	.	.
8B-/L 8d/ 8a-/	8dd\L	.	.	.
8B-/ 8d/ 8a-/	8cc\	.	.	.
8B-/J 8d/ 8a-/	8b-\J)	.	.	.
=10	=10	=10	=10	=10
8B-/L 8d-X/ 8a-/	4ee-\	.	[2.ee-\)	.
8B-/ 8d-/ 8a-/	.	.	.	.
8B-/J 8d-/ 8a-/	8r	.	.	.
8B-/L 8d-/ 8g/	4r	.	.	.
8B-/ 8d-/ 8g/	.	.	.	.
8B-/J 8d-/ 8g/	8r	.	.	.
*	*clefF4	*	*	*
8A-/L 8d-/ 8g-X/	8r	.	2.ee-\]	.
8A-/ 8d-/ 8g-/	(8AA-/L	.	.	.
8A-/J 8d-/ 8g-/	8BB-/J	.	.	.
8A-/L 8c/ 8g-/	8C/L	.	.	.
8A-/ 8c/ 8g-/	8BB-/	.	.	.
8A-/J 8c/ 8g-/	8AA-/J)	.	.	.
!!LO:LB:g=original
=11	=11	=11	=11	=11
8A-X/L 8c-X/ 8g-X/	4D-X\	.	[2.dd-X\	.
8A-/ 8c-/ 8g-/	.	.	.	.
8A-/J 8c-/ 8g-/	8r	.	.	.
8A-/L 8c-/ 8f/	4r	.	.	.
8A-/ 8c-/ 8f/	.	.	.	.
8A-/J 8c-/ 8f/	8r	.	.	.
*	*clefG2	*	*	*
8G-X/L 8c-X/ 8f-X/	8r	.	2.dd-\]	.
8G-/ 8c-/ 8f-/	(8g-X/L	.	.	.
8G-/J 8c-/ 8f-/	8a-/J	.	.	.
8G-/L 8B-/ 8f-/	8b-/L	.	.	.
8G-/ 8B-/ 8f-/	8a-/	.	.	.
8G-/J 8B-/ 8f-/	8g-/J)	.	.	.
!!LO:LB:g=original
=12	=12	=12	=12	=12
*xywh-3:356,2927,2473,521	*xywh-3:356,2927,2473,521	*	*xywh-3:383,2738,2437,237	*xywh-3:383,2738,2437,237
8G-X/L 8c-X/ 8f-X/	4cc-X\	.	[2.cc-X\	.
8G-/ 8c-/ 8f-/	.	.	.	.
8G-/J 8c-/ 8f-/	8r	.	.	.
8G-/L 8c-/ 8e-/	4r	.	.	.
8G-/ 8c-/ 8e-/	.	.	.	.
8G-/J 8c-/ 8e-/	8r	.	.	.
*clefF4	*	*	*	*
8r	8G-X/L 8c-X/ 8e-/	.	8cc-\]	.
(8EE-/L	8G-/ 8c-/ 8e-/	.	8r	.
8FFn/J	8G-/J 8c-/ 8e-/	.	8r	.
8GG-X/L	8G-/L 8c-/ 8e-/	.	4r	.
8FF/	8G-/ 8c-/ 8e-/	.	.	.
8EE-/J)	8G-/J 8c-/ 8e-/	.	8ee-\	.
=13	=13	=13	=13	=13
!	!	!	!LO:TX:b:t=sonore.	!
8BBB-/L	8Gn/L 8B-/ 8e-/	.	[4.eee-\	.
8BBB-/ 8BB-/	8G/ 8B-/ 8e-/	.	.	.
8BBB-/J 8BB-/	8G/J 8B-/ 8e-/	.	.	.
8BBB-/L 8BB-/	8G/L 8B-/ 8e-/	.	8eee-\L]	.
8BBB-/ 8BB-/	8G/ 8B-/ 8e-/	.	8ddd\	.
8BBB-/J 8BB-/	8G/J 8B-/ 8e-/	.	8ccc\J	.
8BBB-/L 8BB-/	8G/L 8B-/ 8en/	.	[4.bb-\	.
8BBB-/ 8BB-/	8G/ 8B-/ 8e/	.	.	.
8BBB-/J 8BB-/	8G/J 8B-/ 8e/	.	.	.
8BBB-/L 8BB-/	8G/L 8B-/ 8e/	.	8bb-\L]	.
8BBB-/ 8BB-/	8G/ 8B-/ 8e/	.	8aa-\	.
8BBB-/J 8BB-/	8G/J 8B-/ 8e/	.	8gg\J	.
=14	=14	=14	=14	=14
8BBB-/L 8BB-/	8An/L 8c/ 8f/	.	[4.ff\	.
8BBB-/ 8BB-/	8A/ 8c/ 8f/	.	.	.
8BBB-/J 8BB-/	8A/J 8c/ 8f/	.	.	.
8BBB-/L 8BB-/	8A/L 8e-/ 8f/	.	8ff\L]	.
8BBB-/ 8BB-/	8A/ 8e-/ 8f/	.	8ee-\	.
8BBB-/J 8BB-/	8A/J 8e-/ 8f/	.	8cc\J	.
8BBB-/L 8BB-/	8B-/L 8e-/ 8a-X/	.	[4.b-\	.
8BBB-/ 8BB-/	8B-/ 8e-/ 8a-/	.	.	.
8BBB-/J 8BB-/	8B-/J 8e-/ 8a-/	.	.	.
8BBB-/L 8BB-/	8A-X/L 8d/	.	8b-/L]	.
8BBB-/ 8BB-/	8A-/ 8d/	.	8a-/	.
8BBB-/J 8BB-/	8A-/J 8d/	.	8f/J	.
!!LO:LB:g=original
=15	=15	=15	=15	=15
!	!LO:TX:b:t=basso cantando.	!LO:DY:rj:b=2	!	!
(16EE-/LL	8G/L 8e-/	p	4e-/	.
16DD/	.	.	.	.
16FF/	8G/ 8e-/	.	.	.
16EE-/	.	.	.	.
16AA-/	8G/J 8e-/	.	8r	.
16GG/JJ)	.	.	.	.
([4.E-\	8G/L 8e-/	.	4r	.
.	8G/ 8e-/	.	.	.
.	8G/J 8e-/	.	8r	.
8E-\L]	8A-/L 8e-/ 8f/	.	2.r	.
8D^\	8A-/ 8e-/ 8f/	.	.	.
8C^\J	8A-/J 8e-/ 8f/	.	.	.
(4BB-/)	8B-/L 8d/ 8f/	.	.	.
.	8B-/ 8d/ 8f/	.	.	.
8AA-/)	8B-/J 8d/ 8f#X/	.	.	.
!!LO:PB:g=original
=16	=16	=16	=16	=16
*xywh-4:193,586,2529,557	*xywh-4:193,586,2529,557	*	*xywh-4:252,372,2477,288	*xywh-4:252,372,2477,288
4.GG/	8B-/L 8e-/ 8g/	.	(>(16e-/LL	p
.	.	.	16d/)	.
.	8B-/ 8e-/ 8b-/	.	(16f/	.
.	.	.	16e-/)	.
.	8B-/J 8e-/ 8b-/	.	(16a-/	.
.	.	.	16g/JJ))	.
(8GG-X/L	8e-/L 8b-/	.	([4.ee-\	.
8FF/	8e-/ 8b-/	.	.	.
8C/J	8e-/J 8an/	.	.	.
16BB-/LL	8f/L 8a-X/	.	8ee-\L]	.
16AAn/	.	.	.	.
16C/	8f/ 8a-/	.	8dd^\	.
16BB-/	.	.	.	.
16E-/	8f/J 8a-/	.	8cc^\J)	.
16D/JJ	.	.	.	.
16G\LL	8B-/L 8d/	.	(4b-\	.
16A-\	.	.	.	.
16F\	8B-/ 8d/	.	.	.
16D\	.	.	.	.
16C\	8B-/J 8d/	.	8a-/)	.
16BB-\JJ)	.	.	.	.
=17	=17	=17	=17	=17
16E-\LL	8B-/L 8g/	.	(4.g/	.
16D\	.	.	.	.
16C\	8B-/ 8g/	.	.	.
16G\	.	.	.	.
16A-\	8e-/J 8g/	.	.	.
16B-\JJ	.	.	.	.
4.An\	8e-/L 8cc/	.	8g-X/L	.
.	8e-/ 8cc/	.	8f/	.
.	8e-/J 8cc/	.	8cc/J)	.
(8A-X'\L	8d/L 8f/	.	(16b-\LL	.
.	.	.	16an\	.
8F'\	8d/ 8f/	.	16cc\	.
.	.	.	16b-\	.
8D'\J	8d/J 8f/	.	16ee-\	.
.	.	.	16dd\JJ)	.
8BB-/L	8d/L 8b-/	.	(16gg\LL	.
.	.	.	16aa-\	.
8C/	8d/ 8b-/	.	16ff\	.
.	.	.	16dd\	.
8AA-/J)	8d/J 8b-/	.	16cc\	.
.	.	.	16b-\JJ)	.
!!LO:LB:g=original
=18	=18	=18	=18	=18
*xywh-4:237,1368,2462,569	*xywh-4:237,1368,2462,569	*	*xywh-4:244,1127,2501,300	*
(<16GG/LL	8e-/L 8b-/	<	(16ee-\LL	.
16BB-/	.	.	16dd\	.
16AA-/	8e-/ 8b-/	.	16cc\	.
16GG/	.	.	16gg\	.
16FF/	8d-X/J 8b-/	.	16aa-\	.
16EEn/JJ	.	.	16bb-\JJ)	.
16EE-X/LL	8c/L 8an/	.	4.aan\	.
16CC/	.	.	.	.
16EE-/	8c/ 8a/	.	.	.
16GG-X/	.	.	.	.
16AAn/	8g-X/J 8a/	.	.	.
16C/JJ	.	.	.	.
16D\LL	8f\L 8a-X\	.	(8aa-X^\L	.
16F\	.	.	.	.
16A-X\	8a-\ 8ff\	[	8ff^\	.
16c-X\	.	.	.	.
16d\	8f\J 8dd\	.	8dd^\J	.
16f\JJ	.	.	.	.
8a-\)	8d-/L 8b-/	.	8b-^\L	.
8r	8B-/ 8f/	.	8cc^\	.
(8DD/	8B-/J 8f/	.	8a-^\J)	.
=19	=19	=19	=19	=19
8EEn/L	8B-/L 8g/	.	(16g/LL	<
.	.	.	16b-/	.
8FF/	8B-/ 8g/	.	16a-/	.
.	.	.	16g/	.
8GG/J	8B-/J 8g/	.	16f/	.
.	.	.	16en/JJ)	.
8AAn/L	8c/L 8g-X/	.	(16e-X/LL	.
.	.	.	16c/	.
8En/	8c/ 8g-/	.	16e-/	.
.	.	.	16g-X/	.
8C/J	8e-/J 8g-/	.	16an/	.
.	.	.	16cc/JJ)	.
8BBn/L	8d/L 8f/	.	(16dd\LL	.
.	.	.	16ff\	.
8D/	8d/ 8f/	.	16aa-X\	.
.	.	.	16bbn\	.
8FF/J	8d/J 8f/	.	16ddd\	.
.	.	.	16fff\JJ)	.
8DD/L	8d/L 8f/	.	(4.aaa-\	[
8FF/	8a-X/ 8dd/	.	.	.
8DD/J)	8e-/J [8a-/	.	.	.
!!LO:LB:g=original
=20	=20	=20	=20	=20
*	*^	*	*	*
*xywh-4:228,2131,2525,580	*xywh-4:228,2131,2525,580	*xywh-4:228,2131,2525,580	*	*xywh-4:248,1886,2430,308	*xywh-4:248,1886,2430,308
8BBBn/	8d/ 8a-/]	2.ryy	.	8aaa-\L)	.
8r	8r	.	.	8fff\	.
8r	8r	.	.	8ddd\J	.
4r	4r	.	.	8bbn\L	.
.	.	.	.	8aa-\	.
8r	8r	.	.	8ff\J	.
8r	8r	8r	<	8dd\	.
!	!LO:N:vis=4.	!	!	!	!
8A-\L 8Bn\	[4f/	8d\L	.	8r	.
8A-\J 8B\	.	8d\J	.	8r	.
8A-\L 8B\	4f/]	8d\L	.	4r	.
8A-\ 8B\	.	8d\	.	.	.
8G\J 8B\	8g/	8d\J	.	8r	.
=21	=21	=21	=21	=21	=21
8r	4.a-/	8r	[ >	1.r	.
8F\L 8Bn\	.	8d\L	.	.	.
8F\J 8B\	.	8d\J	.	.	.
8r	4.g/	8r	.	.	.
8E-\L 8c\	.	8e-\L	.	.	.
8E-\J 8c\	.	8e-\J	.	.	.
8r	4.f#X/	8r	.	.	.
8D\L 8An\	.	8c\L	.	.	.
8D\J 8A\	.	8c\J	.	.	.
8r	4.fn/	8r	.	.	.
8GG/L 8G/	.	8Bn\L	.	.	.
8GG/J 8G/	.	8B\J	.	.	.
=22	=22	=22	=22	=22	=22
8CC\	16r	4.ryy	]	[2.ee-\	.
.	(<16E-</LL	.	.	.	.
8r	16G</	.	.	.	<
.	16c</	.	.	.	.
!	!	!	!LO:HP:b=2	!	!
8r	16e-/	.	<	.	.
.	16g/JJ)	.	.	.	.
8r	4.ee-^/	8r	.	.	.
8c/L	.	8e-\L 8g\	.	.	.
8c/J	.	8e-\J 8g\	.	.	.
8DD\ 8D\	16r	4.ryy	.	(4.ee-\_	.
!	!LO:TX:t=P:problem=mixed beam	!	!	!	!
.	(16F#X</LL	.	.	.	.
8r	16An</	.	.	.	.
.	16c\	.	.	.	.
8r	16f#X\	.	.	.	.
.	16an\JJ)	.	.	.	.
8r	4.aan^/	8r	.	8ee-/L]	[
8f#X/L	.	8a\L 8cc\	.	8dd/	.
8f#/J	.	8a\J 8cc\	[	8d/J)	.
*	*v	*v	*	*	*
!!LO:LB:g=original
=23	=23	=23	=23	=23
(16GG/LL	8d/L 8fn/	>	(4.cc\	.
16FF#X/	.	.	.	.
16AA-/	8d/ 8f/	.	.	.
16GG/	.	.	.	.
16E-/	8d/J 8f/	.	.	.
16D/JJ)	.	.	.	.
[<4.A-\	8d/L 8f/	.	4bn\)	.
.	8d/ 8f/	.	.	.
.	8d/J 8f/	.	8r	.
(8A-/L]	8Bn/L 8d/	]	4r	.
8G'/	8B/ 8d/	.	.	.
8F'/J	8B/J 8d/	.	8r	.
8F'/L	8B/L 8d/	.	4r	.
8E-'/	8B/ 8d/	.	.	.
8D'/J)	8B/J 8d/	.	8r	.
!!LO:LB:g=original
=24	=24	=24	=24	=24
*	*^	*	*	*
*xywh-4:228,2866,2470,565	*xywh-4:228,2866,2470,565	*xywh-4:228,2866,2470,565	*xywh-4:244,2668,2470,288	*xywh-4:244,2668,2470,288	*
[4.D-X\	4.f^/	8r	>	2.r	.
.	.	8G\L 8B-X\	.	.	.
.	.	8G\J 8B-\	.	.	.
8D-\L]	4.en^/	8G\L 8B-\	.	.	.
16C\L	.	8G\ 8B-\	.	.	.
16BB-\	.	.	.	.	.
16AA-\	.	8G\J 8B-\	.	.	.
16GG\JJ	.	.	.	.	.
8FF\L	2.g^/	8r	]	8r	.
8FF\	.	8B-\L 8d-X\	.	([4dd-X^\	.
8FF\J	.	8B-\J 8d-\	.	.	.
8EEn\L	.	8B-\L 8d-\	.	4dd-\]	.
8EE\	.	8B-\ 8d-\	.	.	.
8EE\J	.	8B-\J 8c\	.	8cc\)	.
=25	=25	=25	=25	=25	=25
8FF/ 8F/	16r	4.ryy	.	[2.aa-\	<
.	(16A-/LL	.	.	.	.
8r	16c/	.	.	.	.
.	16f/	.	.	.	.
8r	16a-/	.	.	.	.
.	16cc/JJ)	.	.	.	.
*clefG2	*	*	*	*	*
8r	4.aa-^/	8r	.	.	.
8f/L	.	8a-\L 8cc\	.	.	.
8f/J	.	8a-\J 8cc\	.	.	.
*clefF4	*	*	*	*	*
8GG/ 8G/	16r	4.ryy	.	(4.aa-\_	.
.	(16Bn/LL	.	.	.	.
8r	16d/	.	.	.	.
.	16f/	.	.	.	.
8r	16bn/	.	.	.	.
.	16dd/JJ)	.	.	.	.
*clefG2	*	*	*	*	*
8r	4.ddd^/	8r	.	8aa-\L]	[
8bn\L	.	8dd\L 8ff\	.	8gg\	.
8b\J	.	8dd\J 8ff\	.	8g\J)	.
*	*v	*v	*	*	*
!!LO:PB:g=original
*clefF4	*	*	*	*
=26	=26	=26	=26	=26
(16C\LL	8g/L 8b-X/	.	(4.ff\	>
16BBn\	.	.	.	.
16D-X\	8g/ 8b-/	.	.	.
16C\	.	.	.	.
16A-\	8g/J 8b-/	.	.	.
16G\JJ)	.	.	.	.
[4.d-X\	8g/L 8b-/	.	4een\)	]
.	8g/ 8b-/	.	.	.
.	8g/J 8b-/	.	8r	.
8d-\L]	8en/L 8g/	.	2.r	.
(8c'\	8e/ 8g/	.	.	.
8B-'\J	8e/J 8g/	.	.	.
8B-'\L	8e/L 8g/	.	.	.
8A-'\	8e/ 8g/	.	.	.
8G'\J)	8e/J 8g/	.	.	.
!!LO:PB:g=original
=27	=27	=27	=27	=27
*	*^	*	*	*
*xywh-5:197,609,2504,570	*xywh-5:197,609,2504,570	*xywh-5:197,609,2504,570	*xywh-5:241,386,2468,311	*xywh-5:241,386,2468,311	*
[4.G-X\	4.b-^/	8r	<	2.r	.
.	.	8c\L 8e-\	.	.	.
.	.	8c\J 8e-\	.	.	.
8G-\L]	4.an^/	8c\L 8e-\	.	.	.
16F\L	.	8c\ 8e-\	.	.	.
16E-\	.	.	.	.	.
16D-X\	.	8c\J 8e-\	.	.	.
16C\JJ	.	.	.	.	.
8BB-X/L	2.cc^/	8r	[	8r	.
!	!	!	!	!	!LO:HP:a
8BB-/	.	8e-\L 8g-X\	>	([4gg-X\	>
8BB-/J	.	8e-\J 8g-\	.	.	.
8AAn/L	.	8e-\L 8g-\	.	4gg-\]	]
8AA/	.	8e-\ 8g-\	]	.	.
8AA/J	.	8e-\J 8f\	.	8ff\)	.
*	*v	*v	*	*	*
=28	=28	=28	=28	=28
!	!	!	!	!LO:HP:t=sempre crescendo.
4.AA-\	16d-X\LL 16f\ 16dd-X\	pp	[2.fff\	pp <
.	(16F</	.	.	.
.	16d-\	.	.	.
.	16f\	.	.	.
.	16F</	.	.	.
.	16d-\JJ)	.	.	.
4.AAA-/ 4.AA-/	16r	.	.	.
!	!	!LO:HP:t=crescendo sempre.	!	!
.	(<16F</LL	<	.	.
.	16d-/	.	.	.
.	16f/	.	.	.
.	16F</	.	.	.
.	16d-/JJ)	.	.	.
4.AAAn/ 4.AAn/	16r	.	4.fff\_	.
.	(<16F</LL	.	.	.
.	16d-/	.	.	.
.	16f/	.	.	.
.	16F</	.	.	.
.	16d-/JJ)	.	.	.
4.BBB-/ 4.BB-/	16r	.	8fff\L]	.
.	(16G-X/LL	.	.	.
.	16d-/	.	8eee-\	.
.	16g-X/	.	.	.
.	16G-/	.	8ee-\J	.
.	16d-/JJ)	.	.	.
!!LO:LB:g=original
=29	=29	=29	=29	=29
*xywh-5:240,1399,2500,590	*xywh-5:240,1399,2500,590	*	*xywh-5:268,1159,2428,267	*
4.EEE-/ 4.EE-/	16r	.	4.ddd-X\	.
.	(16Gn/LL	.	.	.
.	16d-X/	.	.	.
.	16gn/	.	.	.
.	16G/	.	.	.
.	16d-/JJ)	.	.	.
4.AAA-/ 4.AA-/	16r	.	[4.ccc\	.
.	(16G-X/LL	.	.	.
.	16c/	.	.	.
.	16cc/	.	.	.
.	16G-/	.	.	.
.	16c/JJ)	.	.	.
4.AAA-/ 4.AA-/	16r	.	8ccc\L]	.
.	(16c/LL	.	.	.
.	16f#X/	.	8ccc\	.
.	16cc/	.	.	.
.	16c/	.	8ccc\J	.
.	16f#/JJ)	.	.	.
.	.	.	8qdddn/	.
4.AAA-/ 4.AA-/	16r	.	8ccc\L	.
.	(16e-/LL	.	.	.
.	16f#/	.	8bbn\	.
.	16ee-/	.	.	.
.	16e-/	.	8ccc\J	.
.	16f#/JJ)	.	.	.
=30	=30	=30	=30	=30
4.GGG/ 4.GG/	16r	.	4.ggg\	.
.	(16G/LL	.	.	.
.	16c/	.	.	.
.	16e-/	.	.	.
.	16g/	.	.	.
.	16G/JJ)	.	.	.
4.GGG/ 4.GG/	16r	.	2.gg\ 2.ggg\	.
.	(16G/LL	.	.	.
.	16c/	.	.	.
.	16e-/	.	.	.
.	16g/	.	.	.
.	16G/JJ)	.	.	.
4.GGG/ 4.GG/	16r	.	.	.
.	(16A-/LL	.	.	.
.	16c/	.	.	.
.	16e-/	.	.	.
.	16a-/	.	.	.
.	16A-/JJ)	.	.	.
4.GGG/ 4.GG/	16r	.	4.ff#X\ 4.fff#X\	.
.	(16An/LL	.	.	.
.	16c/	.	.	.
.	16e-/	.	.	.
.	16an/	.	.	.
.	16A/JJ)	.	.	.
!!LO:LB:g=original
=31	=31	=31	=31	=31
*xywh-5:209,2132,2544,594	*xywh-5:209,2132,2544,594	*	*xywh-5:257,1957,2476,263	*
4.GGG/ 4.GG/	16r	.	4.ffn\ 4.fffn\	.
.	(16Bn/LL	.	.	.
.	16d/	.	.	.
.	16f/	.	.	.
.	16bn/	.	.	.
.	16B/JJ)	.	.	.
4.GGG/ 4.GG/	16r	.	2.een\ 2.eeen\	.
.	(16c/LL	.	.	.
.	16en/	.	.	.
.	16g/	.	.	.
.	16cc/	.	.	.
.	16c/JJ)	.	.	.
4.GGG/ 4.GG/	16r	.	.	.
.	(16e/LL	.	.	.
.	16g/	.	.	.
.	16cc/	.	.	.
.	16een/	.	.	.
.	16e/JJ)	.	.	.
4.GGG/ 4.GG/	16r	.	4.ee-X\ 4.eee-X\	.
.	(16g\LL	.	.	.
.	16cc\	.	.	.
.	16ee-X\	.	.	.
.	16gg\	.	.	.
.	16g\JJ)	.	.	.
=32	=32	=32	=32	=32
4.FFF/ 4.FF/	4.a-\ 4.dd-X\ 4.ff\ 4.aa-\	.	4.dd-X\ 4.ddd-X\	.
4r	4r	.	([4.A-X/	f
8r	8r	.	.	.
4GGG\ 4GG\	4D</ 4F</ 4Bn/	.	8A-/L]	.
.	.	.	8G/	.
8r;	8r;	.	8a-;/J)	.
4r	4r	.	8a-/L	.
.	.	.	16g/L	.
.	.	.	16f/	.
8r	8r	.	16e-/	.
.	.	.	16d/JJ	.
!!LO:LB:g=original
=33	=33	=33	=33	=33
8CC/ 8C/	8E-/L 8c/	.	4c/	.
8r	8c/	pp	.	.
8r	8c/J	.	8r	.
(16C\LL	8c/L	.	4r	.
16BBn\	.	.	.	.
16D\	8c/	.	.	.
16C\	.	.	.	.
16F\	8c/J	.	8r	.
16E-\JJ)	.	.	.	.
[4.G-X^\	8B-/L 8c/	.	4r	.
.	8B-/ 8c/	.	.	.
.	8B-/J 8c/	.	8r	.
8G-\L]	8An/L 8c/	.	8r	.
8F\	8A/ 8c/	.	8r	.
8E-\J	8A/J 8c/	.	8f/	pp
!!LO:LB:g=original
=34	=34	=34	=34	=34
*xywh-5:281,2982,2476,478	*xywh-5:281,2982,2476,478	*	*xywh-5:249,2711,2512,287	*
8E-\L	8B-/L 8f/	.	([2.f/	<
8E-\	8B-/ 8f/	.	.	.
8E-\J	8B-/J 8f/	.	.	.
8Dn\L	8B-/L 8f/	.	.	.
8D\	8B-/ 8f/	.	.	.
8D\J	8B-/J 8f/	.	.	.
8D-X\L	8B-/L 8f/	.	4.f/_	.
8D-\	8B-/ 8f/	.	.	.
8D-\J	8B-/J 8f/	.	.	.
8C/L	8B-/L 8e-/	.	8f\L]	.
8C/	8B-/ 8e-/	.	8g-X\	.
8C/J	8B-/J 8e-/	.	8gg-X\J)	.
=35	=35	=35	=35	=35
8E-\L	8F/L 8An/	.	(4.a-/	.
8E-\	8F/ 8A/	.	.	.
8E-\J	8F/J 8A/	.	.	.
8D-X\L	8F/L 8B-/	.	4.b-\	.
8D-\	8F/ 8B-/	.	.	.
8D-\J	8F/J 8B-/	.	.	.
8AAn/L	8F/L 8c/	.	4.cc\	.
8AA/	8F/ 8c/	.	.	.
8AA/J	8F/J 8c/	.	.	.
8BB-/L	8F/L 8d-X/	.	4.dd-X\	[
8BB-/	8F/ 8d-/	.	.	.
8BB-/J	8F/J 8d-/	.	.	.
=36	=36	=36	=36	=36
8AA-X/L	8F/L 8B-/ 8dn/	.	4.ddn\)	>
8AA-/	8F/ 8B-/ 8d/	.	.	.
8AA-/J	8F/J 8B-/ 8d/	.	.	.
8GG-X/L	8G-X/L 8c-X/ 8e-/	.	(2.ee-\	.
8GG-/	8G-/ 8c-/ 8e-/	.	.	.
8GG-/J	8G-/J 8c-/ 8e-/	.	.	.
8CC/L	8G-/L 8B-/ 8e-/	.	.	.
8CC/	8G-/ 8B-/ 8e-/	.	.	.
8CC/J	8G-/J 8B-/ 8e-/	.	.	.
8FF/L	8F/L 8An/ 8e-/	.	8ee-\L	.
8FF/	8F/ 8A/ 8e-/	.	8dd-X\	.
8FF/J	8F/J 8A/ 8e-/	.	8cc\J)	]]
!!LO:LB:g=original
=37	=37	=37	=37	=37
8BBB-/ 8BB-/	8F/L 8B-/ 8d-X/	.	4b-\	.
8r	8B-/	.	.	.
8r	8B-/J	.	8r	.
(16BB-/LL	8B-/L	.	4r	.
16AAn/	.	.	.	.
16C/	8B-/	.	.	.
16BB-/	.	.	.	.
16E-/	8B-/J	.	8r	.
16D-X/JJ)	.	.	.	.
[4.F-X^\	8A-/L 8B-/	.	4r	.
.	8A-/ 8B-/	.	.	.
.	8A-/J 8B-/	.	8r	.
8F-\L]	8G/L 8B-/	.	8r	.
8E-\	8G/ 8B-/	.	8r	.
8D-\J	8G/J 8B-/	.	8e-/	.
!!LO:PB:g=original
=38	=38	=38	=38	=38
*xywh-6:272,670,2456,478	*xywh-6:272,670,2456,478	*	*xywh-6:300,450,2416,255	*xywh-6:300,450,2416,255
8D-X\L	8A-/L 8e-/	.	([2.e-/	.
8D-\	8A-/ 8e-/	.	.	.
8D-\J	8A-/J 8e-/	.	.	.
8C/L	8A-/L 8e-/	.	.	.
8C/	8A-/ 8e-/	.	.	.
8C/J	8A-/J 8e-/	.	.	.
!	!LO:TX:b:t=crescendo e stringendo poco a poco grandioso.:ext2=cd:problem=dynamics with extention lines	!	!LO:TX:b:t=crescendo stringendo poco a poco grandioso.:ext2=cd:problem=dynamics with extention lines	!
8C-X/L	8A-/L 8e-/	<	4.e-/_	<
8C-/	8A-/ 8e-/	.	.	.
8C-/J	8A-/J 8e-/	.	.	.
8BB-/L	8A-/L 8d-X/	.	8e-\L]	.
8BB-/	8A-/ 8d-/	.	8f-X\	.
8BB-/J	8A-/J 8d-/	.	8ff-X\J)	.
=39	=39	=39	=39	=39
4.BB-/	16r	.	(4.g/	.
.	16G/LL	.	.	.
.	16d-X/	.	.	.
.	16e-/	.	.	.
.	16g/	.	.	.
.	16G/JJ	.	.	.
4.AA-/	16r	.	4.a-/	.
.	16A-/LL	.	.	.
.	16d-/	.	.	.
.	16f-X/	.	.	.
.	16a-/	.	.	.
.	16A-/JJ	.	.	.
4.GG/	16r	.	4.b-\	.
.	16B-/LL	.	.	.
.	16d-/	.	.	.
.	16f-/	.	.	.
.	16b-/	.	.	.
.	16B-/JJ	.	.	.
4.GG-X/ 4.G-X/	16r	.	4.ccn\)	.
.	16cn/LL	.	.	.
.	16e-/	.	.	.
.	16a-/	.	.	.
.	16ccn/	.	.	.
.	16c/JJ	.	.	.
!!LO:LB:g=original
=40	=40	=40	=40	=40
*xywh-6:260,1411,2476,558	*xywh-6:260,1411,2476,558	*	*xywh-6:303,1176,2412,283	*xywh-6:303,1176,2412,283
4.FF/ 4.F/	16r	.	(4.ddn\	.
.	(16dn/LL	.	.	.
.	16a-/	.	.	.
.	16b-/	.	.	.
.	16ddn/	.	.	.
.	16d/JJ)	.	.	.
4.EE-/ 4.E-/	16r	.	4.ee-\	.
.	(16e-/LL	.	.	.
.	16a-/	.	.	.
.	16cc-X/	.	.	.
.	16ee-/	.	.	.
.	16e-/JJ)	.	.	.
4.DDn/ 4.Dn/	16r	.	4.ff\)	.
.	(16f\LL	.	.	.
.	16a-\	.	.	.
.	16cc-\	.	.	.
.	16ff\	.	.	.
.	16f\JJ)	.	.	.
4.DD-X/ 4.D-X/	16r	.	4.gg\	.
.	(16gn\LL	.	.	.
.	16b-\	.	.	.
.	16ee-\	.	.	.
.	16gg\	.	.	.
.	16g\JJ)	.	.	.
!!LO:LB:g=original
=41	=41	=41	=41	=41
*	*Xtuplet	*	*	*
4.CC/ 4.C/	(24An/LL	.	4.an\ 4.aan\	.
.	24e-/	.	.	.
.	24f/JJ	.	.	.
.	24an/LL	.	.	.
.	24f/	.	.	.
.	24e-/JJ	.	.	.
.	24a/LL	.	.	.
.	24f/	.	.	.
.	24e-/JJ	.	.	.
4.AAAn/ 4.AAn/	24c/LL	.	(4.ff\ 4.fff\	.
.	24e-/	.	.	.
.	24f/JJ	.	.	.
.	24cc/LL	.	.	.
.	24f/	.	.	.
.	24e-/JJ	.	.	.
.	24cc/LL	.	.	.
.	24f/	.	.	.
.	24e-/JJ)	.	.	.
2.GGG^/ 2.GG/	(24d-X^/LL	.	[4.gg-X\ [4.ggg-X\	.
.	24g-X/	.	.	.
.	24b-/JJ	.	.	.
.	24dd-X/LL	.	.	.
.	24b-/	.	.	.
.	24g-/JJ	.	.	.
.	24dd-/LL	.	.	.
.	24b-/	.	.	.
.	24g-/JJ	.	.	.
.	24B-/LL	.	4gg-\] 4ggg-\]	.
.	24d-/	.	.	.
.	24g-/JJ	.	.	.
.	24b-/LL	.	.	.
.	24g-/	.	.	.
.	24d-/JJ	.	.	.
.	24b-/LL	.	8b-\) 8bb-\	[[
.	24g-/	.	.	.
.	24d-/JJ)	[[	.	.
!!LO:LB:g=original
=42	=42	=42	=42	=42
*xywh-6:239,2145,2532,590	*xywh-6:239,2145,2532,590	*	*xywh-6:323,1897,2408,323	*xywh-6:323,1897,2408,323
4.CC/ 4.C/	(24An/LL	.	4.an\ 4.aan\	.
.	24e-/	.	.	.
.	24f/JJ	.	.	.
.	24an/LL	.	.	.
.	24f/	.	.	.
.	24e-/JJ	.	.	.
.	24a/LL	.	.	.
.	24f/	.	.	.
.	24e-/JJ	.	.	.
4.AAAn/ 4.AAn/	24c/LL	.	(4.ff\ 4.fff\	.
.	24e-/	.	.	.
.	24f/JJ	.	.	.
.	24cc/LL	.	.	.
.	24f/	.	.	.
.	24e-/JJ	.	.	.
.	24cc/LL	.	.	.
.	24f/	.	.	.
.	24e-/JJ)	.	.	.
2.BBB-^/ 2.BB-/	(24d-X^/LL	.	[4.gg-X\ [4.ggg-X^\	.
.	24g-X/	.	.	.
.	24b-/JJ	.	.	.
.	24dd-X/LL	.	.	.
.	24b-/	.	.	.
.	24g-/JJ	.	.	.
.	24dd-/LL	.	.	.
.	24b-/	.	.	.
.	24g-/JJ	.	.	.
.	24B-/LL	.	4gg-\] 4ggg-\]	.
.	24d-/	.	.	.
.	24g-/JJ	.	.	.
.	24b-/LL	.	.	.
.	24g-/	.	.	.
.	24d-/JJ	.	.	.
.	24b-/LL	.	8b-\) 8bb-\	.
.	24g-/	.	.	.
.	24d-/JJ)	.	.	.
!!LO:LB:g=original
=43	=43	=43	=43	=43
4.CC/ 4.C/	(24An/LL	.	4.an\ 4.aan\	.
.	24e-/	.	.	.
.	24f/JJ	.	.	.
.	24an/LL	.	.	.
.	24f/	.	.	.
.	24e-/JJ	.	.	.
.	24a/LL	.	.	.
.	24f/	.	.	.
.	24e-/JJ	.	.	.
4.AAAn/ 4.AAn/	24c/LL	.	4.ff\ 4.fff\	.
.	24e-/	.	.	.
.	24f/JJ	.	.	.
.	24cc/LL	.	.	.
.	24f/	.	.	.
.	24e-/JJ	.	.	.
.	24cc/LL	.	.	.
.	24f/	.	.	.
.	24e-/JJ)	.	.	.
*xywh-6:247,2942,2500,582	*xywh-6:247,2942,2500,582	*	*xywh-6:299,2687,2408,295	*xywh-6:299,2687,2408,295
!LO:LB:g=original	!	!	!LO:TX:b:t=appasionato.	!
2.BBB-/ 2.BB-/	(24d-X/LL	.	4.gg-X\ 4.ggg-X\	.
.	24g-X/	.	.	.
.	24b-/JJ	.	.	.
.	24dd-X/LL	.	.	.
.	24b-/	.	.	.
.	24g-/JJ	.	.	.
.	24b-/LL	.	.	.
.	24g-/	.	.	.
.	24d-/JJ	.	.	.
.	24B-/LL	.	4.gg-\ 4.ggg-\	.
.	24dn/	.	.	.
.	24g-/JJ	.	.	.
.	24b-/LL	.	.	.
.	24g-/	.	.	.
.	24d/JJ	.	.	.
.	24b-/LL	.	.	.
.	24g-/	.	.	.
.	24d/JJ)	.	.	.
=44	=44	=44	=44	=44
4.BBB-/ 4.BB-/	(24B-/LL	.	[4.gg-X\ [4.ggg-X\	.
.	24e-/	.	.	.
.	24g-X/JJ	.	.	.
.	24b-/LL	.	.	.
.	24g-/	.	.	.
.	24e-/JJ	.	.	.
.	24ee-/LL	.	.	.
.	24g-/	.	.	.
.	24e-/JJ	.	.	.
4.BBB-/ 4.BB-/	24B-/LL	.	8gg-\L] 8ggg-\]	.
.	24e-/	.	.	.
.	24g-/JJ	.	.	.
.	24b-/LL	.	8ee-\ 8eee-\	.
.	24g-/	.	.	.
.	24e-/JJ	.	.	.
.	24ee-/LL	.	8cc-X\J 8ccc-X\	.
.	24g-/	.	.	.
.	24e-/JJ)	.	.	.
4.BBB-/ 4.BB-/	(24B-/LL	.	[4.b-\ [4.bb-\	.
.	24e-/	.	.	.
.	24g-/JJ	.	.	.
.	24b-/LL	.	.	.
.	24g-/	.	.	.
.	24e-/JJ	.	.	.
.	24ee-/LL	.	.	.
.	24b-/	.	.	.
.	24g-/JJ	.	.	.
[4.BBB-/ [4.BB-/	24gg-X/LL	.	8b-\L] 8bb-\]	.
.	24ee-/	.	.	.
.	24b-/JJ	.	.	.
.	24ee-/LL	.	8g-X\ 8gg-X\	.
.	24b-/	.	.	.
.	24g-/JJ	.	.	.
.	24b-/LL	.	8e-\J 8ee-\	.
.	24g-/	.	.	.
.	24e-/JJ)	.	.	.
!!LO:PB:g=original
=45	=45	=45	=45	=45
*	*	*	*^	*
!	!	!	!	!	!LO:DY:rj
*xywh-7:261,652,2484,530	*xywh-7:261,652,2484,530	*	*xywh-7:253,421,2488,275	*xywh-7:253,421,2488,275	*xywh-7:253,421,2488,275
(<16BBB-/LL] 16BB-/]	4.B-/ 4.b-/	.	2.b-/	(4.B-\	f
16DD-X/	.	.	.	.	.
16EE-/	.	.	.	.	.
16FF/	.	.	.	.	.
16GGn/	.	.	.	.	.
16AA-/JJ	.	.	.	.	.
16BB-\LL	4.d-X/ [4.b-/	.	.	4.d-X\)	.
16Cn\	.	.	.	.	.
16D-X\	.	.	.	.	.
16E-\	.	.	.	.	.
16F\	.	.	.	.	.
16G\JJ)	.	.	.	.	.
8A-\L	(24cn/LL 24b-/]	.	([4.b-/	2.c\	.
.	24c/	.	.	.	.
.	24e-/JJ	.	.	.	.
8E-\	24cc/LL	.	.	.	.
.	24e-/	.	.	.	.
.	24c/JJ	.	.	.	.
8C\J	24cc/LL	.	.	.	.
.	24e-/	.	.	.	.
.	24c/JJ	.	.	.	.
8AA-/L	24cc/LL	.	8b-/L]	.	.
.	24e-/	.	.	.	.
.	24c/JJ	.	.	.	.
8EE-/	24cc/LL	.	8a-/	.	.
.	24e-/	.	.	.	.
.	24c/JJ	.	.	.	.
8CC/J	24cc/LL	.	8gn/J)	.	.
.	24e-/	.	.	.	.
.	24c/JJ)	.	.	.	.
!!LO:LB:g=original
=46	=46	=46	=46	=46	=46
(16AAA-/LL 16AA-/	4.c-X/ 4.e-/ 4.cc-X/	.	2.a-/	(4.c-X\	.
16CC-X/	.	.	.	.	.
16DD-X/	.	.	.	.	.
16EE-/	.	.	.	.	.
16FF/	.	.	.	.	.
16GG-X/JJ	.	.	.	.	.
16AA-/LL	4.c-/ 4.a-/	.	.	4.A-\)	.
16BB-/	.	.	.	.	.
16C-X/	.	.	.	.	.
16D-X/	.	.	.	.	.
16E-/	.	.	.	.	.
16F/JJ)	.	.	.	.	.
8G-X\L	(24B-\LL 24a-\	.	([4.a-/	2.B-\	.
.	24B-\	.	.	.	.
.	24d-X\JJ	.	.	.	.
8D-X\	24b-\LL	.	.	.	.
.	24d-\	.	.	.	.
.	24B-\JJ	.	.	.	.
8BB-\J	24b-\LL	.	.	.	.
.	24d-\	.	.	.	.
.	24B-\JJ	.	.	.	.
8GG-/L	24b-/LL	.	8a-/L]	.	.
.	24d-/	.	.	.	.
.	24B-/JJ	.	.	.	.
8DD-/	24b-/LL	.	8g-X/	.	.
.	24d-/	.	.	.	.
.	24B-/JJ	.	.	.	.
8BBB-/J	24b-/LL	.	8f/J)	.	.
.	24d-/	.	.	.	.
.	24B-/JJ)	.	.	.	.
!!LO:LB:g=original
=47	=47	=47	=47	=47	=47
*xywh-7:258,1385,2556,594	*xywh-7:258,1385,2556,594	*	*xywh-7:309,1223,2452,235	*xywh-7:309,1223,2452,235	*
16EEE-/LL 16EE-/	4.B-/ 4.g-X/ 4.b-/	.	2.g-X/	(4.B-\	.
16GGG-X/	.	.	.	.	.
16AAA-/	.	.	.	.	.
16BBB-/	.	.	.	.	.
16CC/	.	.	.	.	.
16DD-X/JJ	.	.	.	.	.
16EE-/LL	4.B--/ [4.g-/	.	.	4.B--\)	.
16FF/	.	.	.	.	.
16GG-X/	.	.	.	.	.
16AA-/	.	.	.	.	.
16BB-/	.	.	.	.	.
16C/JJ	.	.	.	.	.
8D-X/L	(24A-/LL 24g-/]	.	([4.g-/	2.A-\	.
.	24A-/	.	.	.	.
.	24d-X/JJ	.	.	.	.
8AA-/	24a-/LL	.	.	.	.
.	24d-/	.	.	.	.
.	24A-/JJ	.	.	.	.
8FF/J	24a-/LL	.	.	.	.
.	24d-/	.	.	.	.
.	24A-/JJ	.	.	.	.
4DD-/ 4D-/	24a-/LL	.	8g-/L]	.	.
.	24d-/	.	.	.	.
.	24A-/JJ	.	.	.	.
.	24a-/LL	.	8f/	.	.
.	24d-/	.	.	.	.
.	24A-/JJ	.	.	.	.
8CC-X/ 8C-X/	24a-/LL	.	8e-/J)	.	.
.	24d-/	.	.	.	.
.	24A-/JJ)	.	.	.	.
!!LO:LB:g=original
=48	=48	=48	=48	=48	=48
4.BBB-/ 4.BB-/	24r	.	(<4f/	4.A-\	.
.	(24A-/LL	.	.	.	.
.	24f/JJ	.	.	.	.
.	24a-/LL	.	.	.	.
.	24f/	.	.	.	.
.	24A-/JJ	.	.	.	.
.	24a-/LL	.	8e-/)	.	.
.	24f/	.	.	.	.
.	24A-/JJ)	.	.	.	.
4.CC-X/ 4.C-X/	24r	.	(<8dn/L	4.A-\	.
.	(24f/LL	.	.	.	.
.	24a-/JJ	.	.	.	.
.	24ff\LL	.	8a-/	.	.
.	24a-\	.	.	.	.
.	24f\JJ	.	.	.	.
.	24ff\LL	.	8f/J)	.	.
.	24a-\	.	.	.	.
.	24f\JJ)	.	.	.	.
4.BBB-/ 4.BB-/	24r	.	(<4f/	4.A-\	.
.	(24A-/LL	.	.	.	.
.	24f/JJ	.	.	.	.
.	24a-/LL	.	.	.	.
.	24f/	.	.	.	.
.	24A-/JJ	.	.	.	.
.	24a-/LL	.	8e-/)	.	.
.	24f/	.	.	.	.
.	24A-/JJ)	.	.	.	.
4.CC-/ 4.C-/	24r	.	(<8d/L	4.A-\	.
.	(24f/LL	.	.	.	.
.	24a-/JJ	.	.	.	.
.	24ff\LL	.	8a-/	.	.
.	24a-\	.	.	.	.
.	24f\JJ	.	.	.	.
.	24ff\LL	.	8f/J)	.	.
.	24a-\	.	.	.	.
.	24f\JJ)	.	.	.	.
*	*	*	*v	*v	*
!!LO:LB:g=original
=49	=49	=49	=49	=49
*xywh-7:258,2176,2504,558	*xywh-7:258,2176,2504,558	*	*xywh-7:321,1925,2436,295	*
8BBB-/L 8BB-/	8B-/L	.	4A-/ 4d/	.
8BBB-/ 8BB-/	8B-/	.	.	.
8BBB-/J 8BB-/	8B-/J	.	[8a-\ [8ff\	.
8BBB-/L 8BB-/	8B-/L	.	4a-\] 4ff\]	.
8BBB-/ 8BB-/	8B-/	.	.	.
8BBB-/J 8BB-/	8B-/J	.	([8e-/ [8cc-X/	.
8BBB-/L 8BB-/	8B-/L	.	8e-\L] 8cc-\]	.
8BBB-/ 8BB-/	8B-/	.	8d\ 8b-\	.
8BBB-/J 8BB-/	8B-/J	.	(8ee-\J) 8ccc-X\	.
8BBB-/L 8BB-/	8B-/L	.	((4ee-\ 4ccc-\	.
8BBB-/ 8BB-/	8B-/	.	.	.
8BBB-/J 8BB-/	8B-/J	.	[8dd\)) [8bb-\	.
=50	=50	=50	=50	=50
8BBB-/L 8BB-	8B-/L	.	8dd\L]) 8bb-]	.
8BBB-/ 8BB-	8B-/	.	(8cc\ 8aan	.
8BBB-/J 8BB-	8B-/J	.	8an\J 8gg-X	.
8BBB-/L 8BB-	8B-/L	.	8g-X/L 8ee-	.
8BBB-/ 8BB-	8B-/	.	8e-/ 8cc	.
8BBB-/J 8BB-	8B-/J	.	8An/J) 8f#X	.
8BBB-/L 8BB-	8B-/L	.	[4.B-/ [4.gn	.
8BBB-/ 8BB-	8B-/	.	.	.
8BBB-/J 8BB-	8B-/J	.	.	.
8BBB-/L 8BB-	8B-/L	.	4B-/] 4g]	.
8BBB-/ 8BB-	8B-/	.	.	.
8BBB-/J 8BB-	8B-/J	.	8A-X/ 8d	.
=51	=51	=51	=51	=51
8EE-/ 8E-	8e-/	.	8G/ 8e-	.
*clefG2	*	*	*	*
8B-/L 8e- 8b-	8r	.	8r	.
8B-/J 8e- 8b-	8r	pp	8r	.
!	!LO:TX:b:i:t=marcando ben il canto.	!	!	!
8B-/L 8e- 8b-	(4.gg\	<	4r	.
8B-/ 8e- 8b-	.	.	.	.
8B-/J 8e- 8b-	.	.	8r	.
8B-/L 8e- 8a-	4.gg\	.	4.bb-\	pp
8B-/ 8e- 8a-	.	.	.	.
8B-/J 8e- 8a-	.	.	.	.
8B-/L 8d 8a-	8gg\L)	[	([4.aa-\	.
8B-/ 8d 8a-	8ff\	.	.	.
8B-/J 8d 8a-	8f\J	.	.	.
!!LO:LB:g=original
=52	=52	=52	=52	=52
8c/L 8e- 8g	[4.ee-\	.	8aa-\L]	.
8c/ 8e- 8g	.	.	8gg\	.
8c/J 8e- 8g	.	.	8g\J)	.
8A-/L 8e- 8f	8ee-\L]	.	([4.ff\	.
8A-/ 8e- 8f	8dd\	.	.	.
8A-/J 8e- 8f	8cc\J	.	.	.
8G/L 8e- 8g	[4.b-\	<	8ff\L]	.
8G/ 8e- 8g	.	.	8ee-\	.
8G/J 8e- 8g	.	.	8dd\J	.
8G/L 8e- 8g	4b-\]	.	4.ee-\)	.
8G/ 8e- 8g	.	.	.	.
8G/J 8e- 8g	8bn\	.	.	.
!!LO:PB:g=original
=53	=53	=53	=53	=53
*xywh-7:301,2962,2456,514	*xywh-7:301,2962,2456,514	*	*xywh-7:341,2727,2408,255	*xywh-7:341,2727,2408,255
8A-/L 8c 8e-	4.cc\	.	(4ee-\	.
8A-/ 8c 8e-	.	.	.	.
8A-/J 8c 8e-	.	.	8een\)	.
8A-/L 8dn	4.f/	.	(4.ff\	.
8A-/ 8d	.	.	.	.
8A-/J 8d	.	.	.	.
8G/L 8d	4.b-\	.	4.b-\)	.
8G/ 8d	.	.	.	.
8G/J 8d	.	.	.	.
8A-/L 8d	8b-/L	.	([4.ee-X\	.
8A-/ 8c	8e-/	.	.	.
8A-/J 8c-X	8f/J	[[	.	.
=54	=54	=54	=54	=54
*	*^	*	*	*
8B-/L	2.g/	8r	>	8ee-\L]	.
8B-/	.	8e-\L	.	8g\	.
8B-/J	.	8e-\J	.	8cc\J)	.
8B-/L	.	8e-\L	.	[2.b-\	.
8B-/	.	8e-\	.	.	.
8B-/J	.	8e-\J	.	.	.
*clefF4	*	*	*	*	*
8A-\L	4.g/	8r	.	.	.
8BB-\ 8A-	.	8c\L	.	.	.
8BB-\J 8A-	.	8c\J	.	.	.
8BB-\L 8A-	4g/	8d\L	.	4b-\]	.
8BB-\ 8A-	.	8d\	.	.	.
8BB-\J 8A-	8f/	8d\J	.	8b-\	.
*	*v	*v	*	*	*
=55	=55	=55	=55	=55
16EE-/LL	8G/L 8e-	] <	(4.gg^\	p <
16DD/	.	.	.	.
16FF/	8B-/ 8e- 8b-	.	.	.
16EE-/	.	.	.	.
16AA-/	8B-/J 8e- 8b-	.	.	.
16GG/JJ	.	.	.	.
[4.E-^\	8B-/L 8e- 8b-	.	4.gg^\	.
.	8B-/ 8e- 8b-	.	.	.
.	8B-/J 8e- 8b-	.	.	.
(8E-\L]	8c/L 8e- 8b-	.	[4.gg^\	.
8D\	8c/ 8e- 8b-	.	.	.
8C\J	8c/J 8e- 8b-	.	.	.
4BB-/	8d/L 8f 8b-	.	8gg\L]	.
.	8d/ 8f 8b-	.	8ff\)	.
8AA-/)	8d/J 8f 8b-	[[	(8f\J	[
!!LO:PB:g=original
=56	=56	=56	=56	=56
*xywh-8:190,659,2480,526	*xywh-8:190,659,2480,526	*xywh-8:190,659,2480,526	*xywh-8:216,403,2460,287	*xywh-8:216,403,2460,287
4.GG/	8e-/L 8b-	>	[4.ee-\)	>
.	8e-/ 8b-	.	.	.
.	8e-/J 8b-	.	.	.
8GG-X/L	8e-/L 8b-	.	8ee-\L]	.
8FF/	8e-/ 8b-	.	8dd\	.
8E-/J	8g-X/J 8an	.	8cc\J	]
16D\LL	8f/L 8b-	]	([4.b-\	.
16C\	.	.	.	.
16BB-\	8f/ 8b-	.	.	.
16C\	.	.	.	.
16D\	8f/J 8b-	.	.	.
16E-\JJ	.	.	.	.
!LO:TX:b:i:t=legato.	!	!	!	!
16F\LL	8d/L 8a-X 8b-	.	4b-\]	.
16A-\	.	.	.	.
16G\	8d/ 8a- 8b-	.	.	.
16F\	.	.	.	.
16E-\	8d/J 8an 8b-	<	8bn\)	<
16D\JJ	.	.	.	.
=57	=57	=57	=57	=57
16C/LL	8e-/L 8g 8cc	.	4.cc\	.
16D/	.	.	.	.
16C/	8e-/ 8g 8cc	.	.	.
16BB-/	.	.	.	.
16AA-/	8e-/J 8g 8cc	.	.	.
16GG/JJ	.	.	.	.
16FF/LL	8f/L 8a- 8dd	.	4.dd\	.
16AA-/	.	.	.	.
16GG/	8f/ 8a- 8dd	.	.	.
16FF/	.	.	.	.
16EE-/	8f/J 8a- 8dd	.	.	.
16DD/JJ	.	.	.	.
16CC/LL	8e-/L 8g 8ee-	.	([4.ee-\	.
16EE-/	.	.	.	.
16GG/	8e-/ 8g 8ee-	.	.	.
16C/	.	.	.	.
16E-/	8e-/J 8g 8ee-	.	.	.
16G/JJ	.	.	.	.
16c\LL	8g\L 8cc 8ee-	.	4ee-\]	.
16d-X\	.	.	.	.
16c\	8g\ 8cc 8ee-	.	.	.
16B-\	.	.	.	.
16A-\	8b-\J 8cc 8een	.	8een\)	.
16G\JJ	.	.	.	.
!!LO:LB:g=original
=58	=58	=58	=58	=58
*xywh-8:204,1400,2492,538	*xywh-8:204,1400,2492,538	*xywh-8:228,1185,2436,263	*xywh-8:228,1185,2436,263	*
16F\LL	8a-\L 8cc 8ff	.	4.ff\	.
16c\	.	.	.	.
16B-\	8a-\ 8cc 8ff	.	.	.
16A-\	.	.	.	.
16G\	8a-\J 8cc 8ff	.	.	.
16F\JJ	.	.	.	.
16En/LL	8g\L 8cc 8gg	.	4.gg\	.
16D-X/	.	.	.	.
16C/	8g\ 8cc 8gg	.	.	.
16BB-/	.	.	.	.
16AA-/	8g\J 8cc 8gg	.	.	.
16GG/JJ	.	.	.	.
16FF/LL	8a-\L 8cc 8aa-	.	[2.aa-\	[[
16EEn/	.	.	.	.
16FF/	8a-\ 8cc 8aa-	[	.	.
16GG/	.	.	.	.
16AA-/	8a-\ 8cc 8aa-	.	.	.
16BB-/JJ	.	.	.	.
16C/LL	8a-\ 8cc 8aa-	.	.	.
16BB-/	.	.	.	.
16AA-/	8a-\ 8cc 8aa-	.	.	.
16GG/	.	.	.	.
16FF/	8a-\J 8cc 8aa-	.	.	.
16EE-X/JJ	.	.	.	.
=59	=59	=59	=59	=59
8DD/	8a-\ 8b- 8aa-	>	8aa-\]	.
*clefG2	*	*	*	*
8B-/L 8f 8a-	8r	.	8r	.
8B-/J 8f 8a-	8r	.	8r	.
8B-/L 8e- 8a-	4r	.	4r	.
8B-/ 8e- 8a-	.	.	.	.
8B-/J 8e- 8a-	8r	]	8r	.
8B-/L 8d 8a-	8r	.	2.ff\	pp
8B-/ 8d 8a-	(8b-\L	pp	.	.
8B-/ 8d 8a-	8cc\J	.	.	.
8B-/ 8d 8a-	8dd\L	.	.	.
8B-/ 8d 8a-	8cc\	.	.	.
8B-/J 8d 8a-	8b-\J)	.	.	.
!!LO:LB:g=original
=60	=60	=60	=60	=60
*xywh-8:188,2172,2544,574	*xywh-8:188,2172,2544,574	*	*xywh-8:192,1934,2544,291	*
8B-/L 8d-X 8a-	4ee-\	.	[2.ee-\	.
8B-/ 8d- 8a-	.	.	.	.
8B-/J 8d- 8a-	8r	.	.	.
8B-/L 8d- 8g	4r	.	.	.
8B-/ 8d- 8g	.	.	.	.
8B-/J 8d- 8g	8r	.	.	.
*	*clefF4	*	*	*
8A-/L 8d- 8g-X	8r	.	2.ee-\]	.
8A-/ 8d- 8g-	(8AA-/L	.	.	.
8A-/J 8d- 8g-	8BB-/J	.	.	.
8A-/L 8c 8g-	8C/L	.	.	.
8A-/ 8c 8g-	8BB-/	.	.	.
8A-/J 8c 8g-	8AA-/J)	.	.	.
=61	=61	=61	=61	=61
8A-/L 8c-X 8g-X	4D-X\	.	[2.dd-X\	.
8A-/ 8c- 8g-	.	.	.	.
8A-/J 8c- 8g-	8r	.	.	.
8A-/L 8c- 8f	4r	.	.	.
8A-/ 8c- 8f	.	.	.	.
8A-/J 8c- 8f	8r	.	.	.
*	*clefG2	*	*	*
8G-X/L 8c-X 8f-X	8ryy	.	2.dd-\]	.
8G-/ 8c- 8f-	(8g-X/L	.	.	.
8G-/J 8c- 8f-	8a-/J	.	.	.
8G-/L 8B- 8f-	8b-/L	.	.	.
8G-/ 8B- 8f-	8a-/	.	.	.
8G-/J 8B- 8f-	8g-/J	.	.	.
=62	=62	=62	=62	=62
8G-X/L 8c-X 8f-X	4cc-X\)	.	[2.cc-X\	.
8G-/ 8c- 8f-	.	.	.	.
8G-/J 8c- 8f-	8r	.	.	.
8G-/L 8c- 8e-	4r	.	.	.
8G-/ 8c- 8e-	.	.	.	.
8G-/J 8c- 8e-	8r	.	.	.
*clefF4	*	*	*	*
8r	8G-X/L 8c-X 8e-	.	8cc-\]	.
(8EE-/L	8G-/ 8c- 8e-	.	8r	.
8FFn/J	8G-/J 8c- 8e-	.	8r	.
8GG-X/L	8G-X/L 8c-X 8e-	.	4r	.
8FF/	8G-/ 8c- 8e-	.	.	.
8EE-/J)	8G-/J 8c- 8e-	.	8ee-\	.
!!LO:LB:g=original
=63	=63	=63	=63	=63
!	!	!	!LO:TX:b:i:t=sonore.	!
8BBB-/L	8Gn/L 8B- 8e-	.	[4.eee-\	.
8BBB-/ 8BB-	8G/ 8B- 8e-	.	.	.
8BBB-/J 8BB-	8G/J 8B- 8e-	.	.	.
8BBB-/L 8BB-	8G/L 8B- 8e-	.	8eee-\L]	.
8BBB-/ 8BB-	8G/ 8B- 8e-	.	8ddd\	.
8BBB-/J 8BB-	8G/J 8B- 8e-	.	8ccc\J	.
8BBB-/L 8BB-	8G/L 8B- 8en	.	[4.bb-\	.
8BBB-/ 8BB-	8G/ 8B- 8e	.	.	.
8BBB-/J 8BB-	8G/J 8B- 8e	.	.	.
8BBB-/L 8BB-	8G/L 8B- 8e	.	8bb-\L]	.
8BBB-/ 8BB-	8G/ 8B- 8e	.	8aa-\	.
8BBB-/J 8BB-	8G/J 8B- 8e	.	8gg\J	.
!!LO:LB:g=original
=64	=64	=64	=64	=64
*xywh-8:208,2959,2528,550	*xywh-8:208,2959,2528,550	*	*xywh-8:260,2716,2424,263	*
8BBB-/L 8BB-	8An/L 8c 8f	.	[4.ff\	.
8BBB-/ 8BB-	8A/ 8c 8f	.	.	.
8BBB-/J 8BB-	8A/J 8c 8f	.	.	.
8BBB-/L 8BB-	8A/L 8e- 8f	.	8ff\L]	.
8BBB-/ 8BB-	8A/ 8e- 8f	.	8ee-\	.
8BBB-/J 8BB-	8A/J 8e- 8f	.	8cc\J	.
8BBB-/L 8BB-	8B-/L 8e- 8a-X	.	([4.b-\	.
8BBB-/ 8BB-	8B-/ 8e- 8a-	.	.	.
8BBB-/J 8BB-	8B-/J 8e- 8a-	.	.	.
8BBB-/L 8BB-	8A-X/L 8d	.	8b-/L]	.
8BBB-/ 8BB-	8A-/ 8d	.	8a-/	.
8BBB-/J 8BB-	8A-/J 8d	.	8f/J)	.
=65	=65	=65	=65	=65
*	*^	*	*	*
*xywh-8:208,2959,2528,550	*xywh-8:208,2959,2528,550	*xywh-8:208,2959,2528,550	*	*xywh-8:260,2716,2424,263	*xywh-8:260,2716,2424,263
8AAAn/ 8AAn	[4.e-/	8G-X\L 8c	.	4e-/	.
8G-X\L 8An	.	8c\	<	.	.
8G-\J 8A	.	8c\J	.	8r	.
8G-\L 8A	4e-/]	8c\L	.	4r	.
8G-\ 8A	.	8c\	.	.	.
8G-\J 8A	8f/	8c\J	.	8r	.
8E-\L 8A	2.g-X/	8c\L	.	2.r	.
8E-\ 8A	.	8c\	[	.	.
8E-\J 8A	.	8c\J	>	.	.
8E-\L 8A	.	8c\L	.	.	.
8E-\ 8A	.	8c\	.	.	.
8E-\J 8A	.	8c\J	]	.	.
!!LO:LB:g=original
=66	=66	=66	=66	=66	=66
8D\ 8B-	4.f/	8f\L	<	1.r	.
8A-X\L 8c-X	.	8d\	.	.	.
8A-\J 8c-	.	8d\J	.	.	.
8A-\L 8c-	4f/	8d\L	.	.	.
8A-\ 8c-	.	8d\	.	.	.
8G-X\J 8c-	8g-X/	8d\J	.	.	.
8F\ 8c-	[4.a-/	8a-\L	.	.	.
8c-\L 8dn	.	8f\	.	.	.
8c-\J 8d	.	8f\J	.	.	.
8c-\L 8d	4a-/]	8f\L	.	.	.
8c-\ 8d	.	8f\	.	.	.
8B-\J 8d	8b-/	8f\J	[	.	.
=67	=67	=67	=67	=67	=67
8r	4.cc-X/	8r	>	1.r	.
8A-\L 8d	.	8f\L	.	.	.
8A-\J 8d	.	8f\J	.	.	.
8r	4.b-/	8r	.	.	.
8G-X\L 8e-	.	8g-X\L	.	.	.
8G-\J 8e-	.	8g-\J	.	.	.
8r	4.an/	8r	.	.	.
8F\L 8cn	.	8e-\L	.	.	.
8F\J 8c	.	8e-\J	.	.	.
8r	4.a-X/	8r	.	.	.
8BB-\L 8B-	.	8d\L	]	.	.
8BB-\J 8B-	.	8d\J	.	.	.
!!LO:PB:g=original
=68	=68	=68	=68	=68	=68
*xywh-9:262,625,2531,536	*xywh-9:262,625,2531,536	*	*xywh-9:232,403,2522,301	*xywh-9:232,403,2522,301	*
8EE-/ 8E-	16r	4.ryy	pp	([2.gg-X\	pp
.	16G-X/LL	.	.	.	<
8r	16B-/	.	.	.	.
.	16e-/	.	.	.	.
8r	16g-X/	.	.	.	.
.	16b-/JJ	.	.	.	.
8r	4.gg-X^/	8r	.	.	.
8e-\L	.	8g-\L 8b-	.	.	.
8e-\J	.	8g-\J 8b-	.	.	.
8FF/ 8F	16r	4.ryy	.	4.gg-\_	.
.	16An/LL	.	.	.	.
8r	16c/	.	.	.	.
.	16e-/	.	.	.	.
8r	16an/	.	.	.	.
.	16cc/JJ	.	.	.	.
*clefG2	*	*	*	*	*
8r	4.ccc^/	8r	.	8gg-\L]	[
8an/L	.	8cc\L 8ee-	.	8ff\	.
8a/J	.	8cc\J 8ee-	.	8f\J)	.
*	*v	*v	*	*	*
*clefF4	*	*	*	*
=69	=69	=69	=69	=69
*xywh-9:262,625,2531,536	*xywh-9:262,625,2531,536	*	*xywh-9:232,403,2522,301	*xywh-9:232,403,2522,301
(16BB-\LL	8f/L 8a-	.	(4.ee-\	>
16AAn\	.	.	.	.
16C-X\	8f/ 8a-	.	.	.
16BB-\	.	.	.	.
16G-X\	8f/J 8a-	.	.	.
16F\JJ)	.	.	.	.
[4.c-X^\	8f/L 8a-	.	4dd\)	]
.	8f/ 8a-	.	.	.
.	8f/J 8a-	.	8r	.
8c-'\L]	8d/L 8f	.	2.r	.
(8B-'\	8d/ 8f	.	.	.
8A-'\J	8d/ 8f	.	.	.
8A-'\L	8d/ 8f	.	.	.
8G-X'\	8d/ 8f	.	.	.
8F'\J)	8d/J 8f	.	.	.
=70	=70	=70	=70	=70
*	*^	*	*	*
*xywh-9:262,625,2531,536	*xywh-9:262,625,2531,536	*xywh-9:262,625,2531,536	*	*xywh-9:232,403,2522,301	*xywh-9:232,403,2522,301
[4.F-X\	4.a-^/	8r	>	2.r	.
.	.	8B-\L 8d	.	.	.
.	.	8B-\J 8d	.	.	.
8F-\L]	4.gn^/	8B-\L 8d	.	.	.
16E-\L	.	8B-\ 8d	.	.	.
16D-X\	.	.	.	.	.
16C-X\	.	8B-\J 8d	.	.	.
16BB-\JJ	.	.	.	.	.
8AA-/L	2.b-^/	8r	]	8r	.
*	*	*	*	*8va	*
8AA-/	.	8d\L 8f-X	.	([4fff-X^\	.
8AA-/J	.	8d\J 8f-	.	.	.
8AA-/L	.	8d\L 8f-	.	4fff-\]	.
8AA-/	.	8d\ 8f-	.	.	.
8GG/J	.	8d\J 8e-	.	8eee-\)	.
*	*v	*v	*	*	*
!!LO:LB:g=original
=71	=71	=71	=71	=71
*xywh-9:271,1405,2480,566	*xywh-9:271,1405,2480,566	*xywh-9:266,1122,2520,323	*xywh-9:266,1122,2520,323	*
4.AA-/	16r	.	([2.aaa-\	pp <
.	(16c-X/LL	pp	.	.
.	16f-X/	.	.	.
.	16a-/	.	.	.
.	16cc-X/	.	.	.
.	16c-/JJ)	.	.	.
!	!	!LO:HP:t=crescendo sempre.	!	!
4.CC-X/ 4.C-X	16r	<	.	.
.	(16A-/LL	.	.	.
.	16f-/	.	.	.
.	16a-/	.	.	.
.	16A-/	.	.	.
.	16f-/JJ)	.	.	.
4.CCn/ 4.Cn	16r	.	4.aaa-\_	.
.	(16A-/LL	.	.	.
.	16f-/	.	.	.
.	16a-/	.	.	.
.	16A-/	.	.	.
.	16f-/JJ)	.	.	.
4.DD-X/ 4.D-X	16r	.	8aaa-\L]	.
.	(16B-X/LL	.	.	.
.	16f-/	.	8ggg-X\	.
.	16b--/	.	.	.
.	16B--y/	.	8gg-X\J)	[[
.	16f-/JJ)	.	.	.
=72	=72	=72	=72	=72
4.GGG-X/ 4.GG-X	16r	.	(4.fff-X\	.
.	(16B-X/LL	.	.	.
.	16f-X/	.	.	.
.	16b-X/	.	.	.
.	16B-/	.	.	.
.	16f-/JJ)	.	.	.
4.CC-X/ 4.C-X	16r	.	[4.eee-\)	.
.	(16An/LL	.	.	.
.	16e-/	.	.	.
.	16cc-X/	.	.	.
.	16A/	.	.	.
.	16e-/JJ)	.	.	.
4.CC-/ 4.C-	16r	.	8eee-\L]	.
.	(16e-/LL	.	.	.
.	16an/	.	8eee-\	.
.	16ee-/	.	.	.
.	16e-/	.	8eee-\J	.
.	16a/JJ)	.	.	.
.	.	.	8qfffn/	.
4.CC-/ 4.C-	16r	.	8eee-\L	.
.	(16g-X\LL	.	.	.
.	16a\	.	8dddn\	.
.	16gg-X\	.	.	.
.	16g-\	.	8eee-\J	.
.	16a\JJ)	.	.	.
*	*	*	*X8va	*
!!LO:LB:g=original
=73	=73	=73	=73	=73
*xywh-9:263,2146,2496,559	*xywh-9:263,2146,2496,559	*	*xywh-9:336,1947,2419,256	*
*	*	*	*8va	*
4.BBB-/ 4.BB-	16r	.	4.bbb-\	.
.	(16B-/LL	.	.	.
.	16e-/	.	.	.
.	16g-X/	.	.	.
.	16b-/	.	.	.
.	16B-/JJ)	.	.	.
4.BBB-/ 4.BB-	16r	.	2.bb-\ 2.bbb-	.
.	(16B-/LL	.	.	.
.	16e-/	.	.	.
.	16g-/	.	.	.
.	16b-/	.	.	.
.	16B-/JJ)	.	.	.
4.BBB-/ 4.BB-	16r	.	.	.
.	(16c-X/LL	.	.	.
.	16e-/	.	.	.
.	16g-/	.	.	.
.	16cc-X/	.	.	.
.	16c-/JJ)	.	.	.
4.BBB-/ 4.BB-	16r	.	4.aan\ 4.aaan	.
.	(16cn/LL	.	.	.
.	16e-/	.	.	.
.	16g-/	.	.	.
.	16ccn/	.	.	.
.	16c/JJ)	.	.	.
=74	=74	=74	=74	=74
4.BBB-/ 4.BB-	16r	.	4.aa-\ 4.aaa-	.
.	(16dn/LL	.	.	.
.	16f/	.	.	.
.	16a-/	.	.	.
.	16ddn/	.	.	.
.	16d/JJ)	.	.	.
4.BBB-/ 4.BB-	16r	.	2.ggn\ 2.ggg	.
.	(16e-/LL	.	.	.
.	16g-X/	.	.	.
.	16b-/	.	.	.
.	16ee-/	.	.	.
.	16e-/JJ)	.	.	.
4.BBB-/ 4.BB-	16r	.	.	.
.	(16g-\LL	.	.	.
.	16b-\	.	.	.
.	16ee-\	.	.	.
.	16gg\	.	.	.
.	16g-\JJ)	.	.	.
4.BBB-/ 4.BB-	16r	.	4.gg-X\ 4.ggg-X	.
.	(16b-\LL	.	.	.
.	16ee-\	.	.	.
.	16gg-X\	.	.	.
.	16bb-\	.	.	.
.	16b-\JJ)	.	.	.
!!LO:LB:g=original
=75	=75	=75	=75	=75
*xywh-9:309,2942,2473,539	*xywh-9:309,2942,2473,539	*	*xywh-9:278,2693,2473,321	*xywh-9:278,2693,2473,321
*	*	*	*8va	*
4.AAA-/ 4.AA-	4.cc-X\ 4.ff 4.aa-X 4.ccc-X	.	4.ff-X\ 4.fff-X	.
*	*	*	*X8va	*
4r	4r	.	[4.c-X/	f
8r	8r	.	.	.
!	!	!	!LO:TX:b:i:t=quasi ad libit ritard	!
4BBB-/ 4BB-	4F/ 4A- 4d	.	8c-/L]	.
.	.	.	8B-/	.
8r	8r	.	[>8cc-X;/J	.
4r	4r	.	(8cc-\L]	.
.	.	.	16b-\L)	.
.	.	.	16a-\	.
8r	8r	.	16gn\	.
.	.	.	16fn\JJ	.
=76	=76	=76	=76	=76
!	!	!	!LO:TX:b:i:t=stringendo poco a poco	!
1.r;	1.r;	.	16en/LL	.
.	.	.	16f/	.
.	.	.	16e/	.
.	.	.	16f/	.
.	.	.	16g/	.
.	.	.	16a-/JJ	.
.	.	.	16c#X/LL	.
.	.	.	16d/	.
.	.	.	16c#/	.
.	.	.	16d/	.
.	.	.	16e-X/	.
.	.	.	16f/JJ	.
.	.	.	8qB-/	.
.	.	.	2.A-T;</	.
.	.	.	16qqG/LL	.
.	.	.	16qqA-/JJ	.
!!LO:PB:g=original
=77	=77	=77	=77	=77
*xywh-10:289,688,2452,498	*xywh-10:289,688,2452,498	*	*xywh-10:297,448,2440,299	*
8r	8r	pp	4G/	.
8BBn/L	8G/L 8d	.	.	.
8BB/J	8G/J 8d	.	8r	.
8BB/L	8G/L 8d	.	4r	.
8BB/	8G/ 8d	.	.	.
8BB/J	8G/J 8d	.	8r	.
8BB-X/L	8G/L 8d-X 8e-	.	2.r	.
8BB-/	8G/ 8d- 8e-	.	.	.
8BB-/J	8G/J 8d- 8e-	.	.	.
8BB-/L	8G/L 8d- 8e-	.	.	.
8BB-/	8G/ 8d- 8e-	.	.	.
8BB-/J	8G/J 8d- 8e-	.	.	.
=78	=78	=78	=78	=78
8AAn/L	8F/L 8c 8f	<	(2.ff\	<
8AA/	8F/ 8c 8f	.	.	.
8AA/	8F/J 8c 8f	.	.	[
8AA/	8F/L 8c 8f	.	.	>
8AA/	8F/ 8c 8f	.	.	.
8AA/J	8F/J 8c 8f	.	.	.
8D\L	8Bn/L 8f 8g	[ >	4g/)	]
8D\	8B/ 8f 8g	.	.	.
8D\	8B/J 8f 8g	.	8r	.
8D\	8B/L 8f 8g	.	4r	.
8D\	8B/ 8f 8g	.	.	.
8D\J	8B/J 8f 8g	]]	8r	.
=79	=79	=79	=79	=79
8C/L	8A-/L 8e- 8a-	<	(2.aa-\	<
8C/	8A-/ 8e- 8a-	.	.	.
8C/	8A-/J 8e- 8a-	.	.	[
8C/	8A-/L 8e- 8a-	.	.	>
8C/	8A-/ 8e- 8a-	.	.	.
8C/J	8A-/J 8e- 8a-	.	.	.
8F\L	8d/L 8a- 8b-	[ >	4b-\)	]
8F\	8d/ 8a- 8b-	.	.	.
8F\	8d/J 8a- 8b-	.	8r	.
8F\	8d/L 8a- 8b-	.	4r	.
8F\	8d/ 8a- 8b-	.	.	.
8F\J	8d/J 8a- 8b-	]]	8r	.
!!LO:LB:g=original
=80	=80	=80	=80	=80
8En\L	8c/L 8g 8cc	<	(2.ccc\	<
8E\	8c/ 8g 8cc	.	.	.
8E\	8c/J 8g 8cc	.	.	.
8E\	8c/L 8g 8cc	.	.	[
8E\	8c/ 8g 8cc	.	.	>
8E\J	8c/J 8g 8cc	.	.	.
8A-X\L	8f/L 8b- 8dd	.	4.dd\)	]
8A-\	8f/ 8b- 8dd	.	.	.
8A-\	8f/J 8b- 8dd	.	.	.
8A-\	8f/L 8b- 8dd	.	4.dd\ 4.ddd	<[
8A-\	8f/ 8b- 8dd	.	.	.
8A-\J	8f/J 8b- 8dd	[[	.	.
!!LO:LB:g=original
=81	=81	=81	=81	=81
*xywh-10:257,1450,2448,558	*xywh-10:257,1450,2448,558	*	*xywh-10:261,1214,2456,295	*xywh-10:261,1214,2456,295
!	!LO:TX:b:i:t=crescendo e stringendo un poco:ext2=cd:problem=dynamics with extention lines	!	!LO:TX:b:i:t=crescendo e stringendo un poco:ext2=cd:problem=dynamics with extention lines	!
8G\L	8e-/L 8b- 8ee-	<	[4.ee-\ [4.eee-	<
8G\	8e-/ 8b- 8ee-	.	.	.
8G\	8e-/ 8b- 8ee-	.	.	.
8G\	8e-/ 8b- 8ee-	.	8ee-\L] 8eee-]	.
8G\	8e-/ 8b- 8ee-	.	8ee-\ 8eee-	.
8G\J	8e-/J 8b- 8ee-	.	8ee-\J 8eee-	.
8G\L	8e-/L 8bn 8ee-	.	[4.ee-\ [4.eee-	.
8G\	8e-/ 8b 8ee-	.	.	.
8G\	8e-/ 8b 8ee-	.	.	.
8G\	8e-/ 8b 8ee-	.	8ee-\L] 8eee-]	.
8G\	8e-/ 8b 8ee-	.	8ee-\ 8eee-	.
8G\J	8e-/J 8b 8ee-	.	8ee-\J 8eee-	.
=82	=82	=82	=82	=82
8A-\L	8f\L 8cc 8ee-	.	[4.ee-\ [4.eee-	.
8A-\	8f\ 8cc 8ee-	.	.	.
8A-\	8f\ 8cc 8ee-	.	.	.
8A-\	8f\ 8cc 8ee-	.	8ee-\L] 8eee-]	.
8A-\	8f\ 8cc 8ee-	.	8ee-\ 8eee-	.
8A-\J	8f\J 8cc 8ee-	.	8ee-\J 8eee-	.
8A-\L	8f\L 8cc-X 8ee-	.	[4.ee-\ [4.eee-	.
8A-\	8f\ 8cc- 8ee-	.	.	.
8A-\	8f\ 8cc- 8ee-	.	.	.
8A-\	8f\ 8cc- 8ee-	.	4ee-\] 4eee-]	.
8A-\	8f\ 8cc- 8ee-	.	.	.
8A-\J	8f\J 8cc- 8ee-	[[	[8ee-\ [8ccc	[[
=83	=83	=83	=83	=83
!	!LO:TX:b:B:t=in tempo.	!	!	!
8BBB-/L 8BB-	8B-/L	.	8ee-\L] 8ccc]	.
!	!	!	!LO:TX:b:B:t=in tempo.	!
8BBB-/ 8BB-	8B-/	ff	8dd\J 8bb-	ff
8BBB-/ 8BB-	8B-/	.	[8aa-\ [8fff	.
8BBB-/ 8BB-	8B-/	.	4aa-\] 4fff]	.
8BBB-/ 8BB-	8B-/	.	.	.
8BBB-/J 8BB-	8B-/J	.	([8ee-\ [8ccc-X	.
8BBB-/L 8BB-	8B-/L	.	8ee-\L] 8ccc-]	.
8BBB-/ 8BB-	8B-/	.	8dd\J) 8bb-	.
8BBB-/ 8BB-	8B-/	.	[8aa-\ [8fff	.
8BBB-/ 8BB-	8B-/	.	4aa-\] 4fff]	.
8BBB-/ 8BB-	8B-/	.	.	.
8BBB-/J 8BB-	8B-/J	.	(8ee-\ 8ccc-	.
!!LO:LB:g=original
=84	=84	=84	=84	=84
8BBB-/L 8BB-	8B-/L	.	8dd\L) 8bb-	.
8BBB-/ 8BB-	8B-/	.	(8cc\ 8aan	.
8BBB-/ 8BB-	8B-/	.	8a-\J 8gg-X	.
8BBB-/ 8BB-	8B-/	.	8g-X/L 8ee-	.
8BBB-/ 8BB-	8B-/	.	8e-/ 8cc	.
8BBB-/J 8BB-	8B-/J	.	8An/J) 8f#X	.
8BBB-/L 8BB-	8B-/L	.	[4.B-/ [4.gn	.
8BBB-/ 8BB-	8B-/	.	.	.
8BBB-/ 8BB-	8B-/	.	.	.
8BBB-/ 8BB-	8B-/	.	4B-/] 4g]	.
8BBB-/ 8BB-	8B-/	.	.	.
8BBB-/J 8BB-	8B-/J	.	8A/ 8d	.
!!LO:LB:g=original
=85	=85	=85	=85	=85
*xywh-10:245,2183,2500,558	*xywh-10:245,2183,2500,558	*	*xywh-10:281,1969,2448,291	*xywh-10:281,1969,2448,291
8EE-/L 8E-	8e-/L	pp	4G/ 4e-	.
8EE-/ 8E-	8B-/ 8e- 8b-	.	.	.
8EE-/ 8E-	8B-/J 8e- 8b-	.	8r	.
8EE-/ 8E-	8B-/L 8e- 8b-	.	([2.gg\	p
8EE-/ 8E-	8B-/ 8e- 8b-	.	.	.
8EE-/J 8E-	8B-/J 8e- 8b-	.	.	.
8EE-/L 8E-	8c-X/L 8e- 8b-	.	.	.
8EE-/ 8E-	8c-/ 8e- 8b-	.	.	.
8EE-/ 8E-	8c-/J 8e- 8b-	.	.	.
8EE-/ 8E-	8c-/L 8e- 8an	.	8gg\L]	.
8EE-/ 8E-	8c-/ 8e- 8a	.	8ff\	.
8EE-/J 8E-	8c-/J 8e- 8a	.	8f\J)	.
=86	=86	=86	=86	=86
!	!	!	!	!LO:HP:t=diminuendo sempre.
8EE-/L 8E-	8cn/L 8e- 8a-X	.	([4.ee-\	>
8EE-/ 8E-	8c/ 8e- 8a-	.	.	.
8EE-/ 8E-	8c/J 8e- 8a-	.	.	.
8EE-/ 8E-	8B-/L 8f 8a-	.	8ee-/L]	.
8EE-/ 8E-	8B-/ 8f 8a-	.	8dd/	.
8EE-/J 8E-	8B-/J 8f 8a-	.	8d/J)	.
8EE-/L 8E-	8B-/L 8d 8a-	.	([4.cc\	.
8EE-/ 8E-	8B-/ 8d 8a-	.	.	.
8EE-/ 8E-	8B-/J 8d 8a-	.	.	.
8EE-/ 8E-	8B-/L 8d-X 8g	.	8cc/L]	.
8EE-/ 8E-	8B-/ 8d- 8g	.	8b-/	.
8EE-/J 8E-	8B-/J 8d- 8g	.	8B-/J)	.
=87	=87	=87	=87	=87
8EE-/L 8E-	8c/L 8e- 8a-	.	([4.a-/	.
8EE-/ 8E-	8c/ 8e- 8a-	.	.	.
8EE-/ 8E-	8c/J 8e- 8a-	.	.	.
8EE-/ 8E-	8B-/L 8e- 8b-	.	8a-/L]	.
8EE-/ 8E-	8B-/ 8e- 8b-	.	8g/	.
8EE-/J 8E-	8B-/J 8e- 8b-	.	8G/J)	.
8EE-/L 8E-	8F/L 8A- 8e-	.	([4.f/	.
8EE-/ 8E-	8F/ 8A- 8e-	.	.	.
8EE-/ 8E-	8F/J 8A- 8e-	.	.	.
8EE-/ 8E-	8F/L 8A- 8d	.	4f/]	.
8EE-/ 8E-	8F/ 8A- 8d	.	.	.
8EE-/J 8E-	8F/J 8A- 8d	.	8B-/)	.
!!LO:LB:g=original
=88	=88	=88	=88	=88
*^	*^	*	*	*
*xywh-10:245,2183,2500,558	*xywh-10:245,2183,2500,558	*xywh-10:245,2183,2500,558	*xywh-10:281,1969,2448,291	*xywh-10:281,1969,2448,291	*	*
(16EE-/LL 16E-	4.ryy	8G/ 8e-	4.ryy	.	8e-/	.
16DD/	.	.	.	.	.	.
16FF/	.	8r	.	.	8r	.
16EE-/	.	.	.	.	.	.
16AA-/	.	8r	.	.	8r	.
16GG/JJ)	.	.	.	.	.	.
8E-/L	[2.EE-\	4.ryy	8r	.	4r	.
8D/	.	.	(16A-\LL	.	.	.
.	.	.	16G\	.	.	.
[<8D-X/J	.	.	16B-\	.	8r	.
.	.	.	16A-\JJ)	.	.	.
4D-/]	.	8r	4.A-\	.	2.r	.
.	.	(<16e-/LL	.	.	.	.
.	.	16d/	.	.	.	.
8C/	.	16f/	.	.	.	.
.	.	16e-/JJ)	.	.	.	.
4.C-X/	4.EE-\_	8r	[4.e-\	.	.	.
.	.	(<16a-/LL	.	.	.	.
.	.	16g/	.	.	.	.
.	.	16b-/	.	.	.	.
.	.	16a-/JJ)	.	.	.	.
*v	*v	*	*	*	*	*
*	*v	*v	*	*	*
!!LO:LB:g=original
=89	=89	=89	=89	=89
*xywh-10:261,2962,2504,606	*xywh-10:261,2962,2504,606	*	*xywh-10:249,2722,2520,335	*xywh-10:249,2722,2520,335
8EE-\] 8BB-	8e-/] 8g 8ee-	.	4r	.
8r	8G</L 8B-< 8e-	.	.	.
8r	8G</J 8B-< 8e-	.	8r	.
16DD-X\LL	8G</L 8B-< 8e-	<	(8e-'/L	pp <
16CC\	.	.	.	.
16EE-\	8G</ 8B-< 8e-	.	8g'/	.
16DD-\	.	.	.	.
16CC\	8G</J 8B-< 8e-	.	8b-'/J)	.
16DD-\JJ	.	.	.	.
16CC-X\LL	8A-</L 8e- 8f	.	4.ee-\	.
16BBB-\	.	.	.	.
16DD-\	8A-</ 8e- 8f	.	.	.
16CC-\	.	.	.	.
16BBB-\	8A-</J 8e- 8f	.	.	.
16CC-\JJ	.	.	.	.
16AAA-\LL	8c-X/L 8e- 8f	.	(8ee-'\L	.
16GGG\	.	.	.	.
16BBB-\	8c-/ 8e- 8f	.	8aa-'\	.
16AAA-\	.	.	.	.
16GGG\	8c-/J 8e- 8f	.	8ccc-X'\J)	.
16AAA-\JJ	.	.	.	.
=90	=90	=90	=90	=90
!	!	!	!LO:TX:b:i:t=rallentando.	!
8EEE-/L 8EE-	8B-/L 8e- 8g	.	[2.eee-\	.
8EEE-/ 8EE-	8B-/ 8e- 8g	.	.	.
8EEE-/J 8EE-	8B-/J 8e- 8g	.	.	.
!	!LO:TX:b:i:t=rallentando.	!	!	!
8EEE-/L 8EE-	8c/L 8f#X 8an	.	.	.
8EEE-/ 8EE-	8c/ 8f# 8a	.	.	.
8EEE-/J 8EE-	8c/J 8f# 8a	.	.	.
8EEE-/L 8EE-	8d-X/L 8g 8b-	[	2.eee-\_	[
8EEE-/ 8EE-	8d-/ 8g 8b-	.	.	.
8EEE-/J 8EE-	8d-/J 8g 8b-	.	.	.
8EEE-/L 8EE-	8c/ 8a 8ee-	>	.	>
8EEE-/ 8EE-	8r	.	.	.
8EEE-/J 8EE-	8Fn</ 8A-X< 8e-	.	.	]
=91	=91	=91	=91	=91
8EEE-/L 8EE-	4G</ 4B-< 4e-	]	4eee-\]	.
8EEE-/ 8EE-	.	.	.	.
8EEE-/J 8EE-	8r	.	8r	.
8EEE-/L 8EE-	8G</L 8B-< 8e-	.	(8G'/L 8e-	.
8EEE-/ 8EE-	8G</ 8B-< 8e-	ppp	8G'/ 8e-	ppp
8EEE-/J 8EE-	8G</J 8B-< 8e-	.	8G'/J) 8e-	.
2.EEE-/ 2.EE-	2.G</ 2.B-< 2.e-	.	2.G/ 2.e-	.
==	==	==	==	==
*-	*-	*-	*-	*-
!!!system-decoration: s1[(s2,s3)]
!!!RDF**kern: > = above
!!!RDF**kern: < = below
!!!ENC: Andrzej Gręziak
!!!END: 2022-03-13
!!!ENC: Leszek Kubiak
!!!END: 2022-03-18
!!!IIIF: https://polona.pl/iiif/item/MjExNDc2OA/manifest.json
!!!ENC-iiif: Marta Opryszak
!!!END-iiif: 2022-08-23
